X: 3
T: Pride Of Erin, The
M: 6/8
L: 1/8
R: jig
K: A Dorian 
|: E |\
AEA cBA | a^ga edc | BAG gag | edB dcB |
A^GA cBA | a^ga edc | A/B/cG gag | edB A2 :|
|: e |\
aea c'ba | gef gab | age edB | A/B/cA G2 B |
[1 A^GA cBA | a^ga edc | A/B/cG gag | edB A2 :|
[2 AGE cBA | dcd egb | age dBG | edB A2 |]
